X: 23
T:Fly Around My Pretty Little Miss
M:C|
L:1/8
R:Reel
K:D
S:https://tunearch.org//wiki/Fly_Around_My_Pretty_Little_Miss
"D"f2e2d2B2|dedB A2A2|A2A2 B2d2|[d3f3]e [d2f2][d2f2]-|
"D"[d2f2]e2d2B2|dedB A2A2-|"A"A2A2 BAcA|"D"[d3f3][de][d4f4]:|
|:"D"a2a2f2a2|"G"b3a b2a2-|"D"a2a2 agf2|"A"e4 e2fg|
"D"a2a2f2a2|"G"b3a b2 a2-|"A"a2 aa gf e2|"D"[d3f3][de][d4f4]:|

